src/static/images/icons/models-icon.svg

<svg xmlns="http://www.w3.org/2000/svg" width="16" height="16" viewBox="0 0 16 16">
  <g fill="none" fill-rule="evenodd">
    <rect width="16" height="16"/>
    <g transform="translate(0 1)">
      <path fill="#666" fill-rule="nonzero" d="M14.7555469 6.00004168C15.435744 6.00004168 16.0000417 5.43579069 16.0000417 4.75558019L16.0000417 1.24446148C16.0000417.564250983 15.435744 0 14.7555469 0L11.2444948 0C10.5642976 0 10 .564250983 10 1.24446148L10 4.75558019C10 5.43579069 10.5642976 6.00004168 11.2444948 6.00004168L14.7555469 6.00004168zM14.7555469 4.93335945L11.2444948 4.93335945C11.1367953 4.93335945 11.0666956 4.86325974 11.0666956 4.75558019L11.0666956 1.24446148C11.0666956 1.1367286 11.1366953 1.06666889 11.2444948 1.06666889L14.7555469 1.06666889C14.8632464 1.06666889 14.9333461 1.13677527 14.9333461 1.24446148L14.9333461 4.75558019C14.9333461 4.86329974 14.8633464 4.93335945 14.7555469 4.93335945zM4.75554686 14.0000417C5.43574403 14.0000417 6.00004168 13.4357907 6.00004168 12.7555802L6.00004168 9.24446148C6.00004168 8.56425098 5.43574403 8 4.75554686 8L1.24449482 8C.56429765 8 0 8.56425098 0 9.24446148L0 12.7555802C0 13.4357907.56429765 14.0000417 1.24449482 14.0000417L4.75554686 14.0000417zM4.75554686 12.9333595L1.24449482 12.9333595C1.13679527 12.9333595 1.06669556 12.8632597 1.06669556 12.7555802L1.06669556 9.24446148C1.06669556 9.1367286 1.13669527 9.06666889 1.24449482 9.06666889L4.75554686 9.06666889C4.86324641 9.06666889 4.93334612 9.13677527 4.93334612 9.24446148L4.93334612 12.7555802C4.93334612 12.8632997 4.86334641 12.9333595 4.75554686 12.9333595zM14.7555469 14.0000417C15.435744 14.0000417 16.0000417 13.4357907 16.0000417 12.7555802L16.0000417 9.24446148C16.0000417 8.56425098 15.435744 8 14.7555469 8L11.2444948 8C10.5642976 8 10 8.56425098 10 9.24446148L10 12.7555802C10 13.4357907 10.5642976 14.0000417 11.2444948 14.0000417L14.7555469 14.0000417zM14.7555469 12.9333595L11.2444948 12.9333595C11.1367953 12.9333595 11.0666956 12.8632597 11.0666956 12.7555802L11.0666956 9.24446148C11.0666956 9.1367286 11.1366953 9.06666889 11.2444948 9.06666889L14.7555469 9.06666889C14.8632464 9.06666889 14.9333461 9.13677527 14.9333461 9.24446148L14.9333461 12.7555802C14.9333461 12.8632997 14.8633464 12.9333595 14.7555469 12.9333595zM4.75554686 6.00004168C5.43574403 6.00004168 6.00004168 5.43579069 6.00004168 4.75558019L6.00004168 1.24446148C6.00004168.564250983 5.43574403 0 4.75554686 0L1.24449482 0C.56429765 0 0 .564250983 0 1.24446148L0 4.75558019C0 5.43579069.56429765 6.00004168 1.24449482 6.00004168L4.75554686 6.00004168zM4.75554686 4.93335945L1.24449482 4.93335945C1.13679527 4.93335945 1.06669556 4.86325974 1.06669556 4.75558019L1.06669556 1.24446148C1.06669556 1.1367286 1.13669527 1.06666889 1.24449482 1.06666889L4.75554686 1.06666889C4.86324641 1.06666889 4.93334612 1.13677527 4.93334612 1.24446148L4.93334612 4.75558019C4.93334612 4.86329974 4.86334641 4.93335945 4.75554686 4.93335945z"/>
      <line x1="10.667" x2="6" y1="3" y2="3" stroke="#666"/>
      <line x1="10.667" x2="6" y1="11" y2="11" stroke="#666"/>
      <line x1="5" x2="11" y1="9" y2="5" stroke="#666"/>
    </g>
  </g>
</svg>

<svg width="16" height="14" xmlns="http://www.w3.org/2000/svg"><g fill="none" fill-rule="evenodd"><path d="M14.756 6C15.436 6 16 5.436 16 4.756V1.244C16 .564 15.436 0 14.756 0h-3.512C10.564 0 10 .564 10 1.244v3.512C10 5.436 10.564 6 11.244 6h3.512zm0-1.067h-3.512c-.107 0-.177-.07-.177-.177V1.244c0-.107.07-.177.177-.177h3.512c.107 0 .177.07.177.177v3.512c0 .107-.07.177-.177.177zM4.756 14C5.436 14 6 13.436 6 12.756V9.244C6 8.564 5.436 8 4.756 8H1.244C.564 8 0 8.564 0 9.244v3.512C0 13.436.564 14 1.244 14h3.512zm0-1.067H1.244c-.107 0-.177-.07-.177-.177V9.244c0-.107.07-.177.177-.177h3.512c.107 0 .177.07.177.177v3.512c0 .107-.07.177-.177.177zM14.756 14c.68 0 1.244-.564 1.244-1.244V9.244C16 8.564 15.436 8 14.756 8h-3.512C10.564 8 10 8.564 10 9.244v3.512c0 .68.564 1.244 1.244 1.244h3.512zm0-1.067h-3.512c-.107 0-.177-.07-.177-.177V9.244c0-.107.07-.177.177-.177h3.512c.107 0 .177.07.177.177v3.512c0 .107-.07.177-.177.177zM4.756 6C5.436 6 6 5.436 6 4.756V1.244C6 .564 5.436 0 4.756 0H1.244C.564 0 0 .564 0 1.244v3.512C0 5.436.564 6 1.244 6h3.512zm0-1.067H1.244c-.107 0-.177-.07-.177-.177V1.244c0-.107.07-.177.177-.177h3.512c.107 0 .177.07.177.177v3.512c0 .107-.07.177-.177.177z" fill="#CDCDCD" fill-rule="nonzero"/><path stroke="#CDCDCD" d="M10.667 3H6M10.667 11H6M5 9l6-4"/></g></svg>
